resources/haticons/SVG/format_list_numbered_rtl.svg

<!-- Generated by IcoMoon.io -->
<svg version="1.1" xmlns="http://www.w3.org/2000/svg" width="24" height="24" viewBox="0 0 24 24">
<title>format_list_numbered_rtl</title>
<path d="M2.016 11.016h13.969v1.969h-13.969v-1.969zM2.016 17.016h13.969v1.969h-13.969v-1.969zM2.016 5.016h13.969v1.969h-13.969v-1.969zM18 11.016v-1.031h3v0.938l-1.781 2.063h1.781v1.031h-3v-0.938l1.781-2.063h-1.781zM18.984 8.016v-3h-0.984v-1.031h2.016v4.031h-1.031zM18 17.016v-1.031h3v4.031h-3v-1.031h2.016v-0.469h-1.031v-1.031h1.031v-0.469h-2.016z"></path>
</svg>

<svg xmlns="http://www.w3.org/2000/svg" width="24" height="24"><path d="M2.016 11.016h13.969v1.969H2.016v-1.969zm0 6h13.969v1.969H2.016v-1.969zm0-12h13.969v1.969H2.016V5.016zm15.984 6V9.985h3v.938l-1.781 2.063H21v1.031h-3v-.938l1.781-2.063H18zm.984-3v-3H18V3.985h2.016v4.031h-1.031zm-.984 9v-1.031h3v4.031h-3v-1.031h2.016v-.469h-1.031v-1.031h1.031v-.469H18z"/></svg>
